icon-themes/breeze_svg/cmd/lc_hidewhitespace.svg

<svg viewBox="0 0 24 24" xmlns="http://www.w3.org/2000/svg"><path d="m3 6v12h18v-12zm1 1h16v10h-16z" fill="#4d4d4d"/><path d="m4 3v2h16v-2zm0 16v2h16v-2z" fill="#1d99f3"/></svg>

<svg viewBox="0 0 24 24" xmlns="http://www.w3.org/2000/svg">
  <path
     style="fill:#4d4d4d"
     d="M 3,6 V 18 H 21 V 6 Z M 4,7 H 20 V 17 H 4 Z"
     />
  <path
     style="fill:#1d99f3"
     d="M 4,3 V 5 H 20 V 3 Z m 0,16 v 2 h 16 v -2 z"
     />
</svg>
